Newaita/actions/22/go-top.svg

<svg height="22" viewBox="0 0 22 22" width="22" xmlns="http://www.w3.org/2000/svg"><g fill="#424242"><path d="m11.824219 17.453125v-8.183594c0-.503906-.40625-.910156-.910157-.910156-.5 0-.910156.40625-.910156.910156v8.183594c0 .503906.410156.910156.910156.910156.503907 0 .910157-.40625.910157-.910156zm0 0"/><path d="m5.125 16.34375 6.433594-6.433594c.355468-.355468.355468-.929687 0-1.285156-.355469-.355469-.933594-.355469-1.289063 0l-6.429687 6.429688c-.355469.355468-.355469.933593 0 1.289062.355468.355469.929687.355469 1.285156 0zm0 0"/><path d="m17.992188 15.054688-6.433594-6.429688c-.355469-.355469-.929688-.355469-1.285156 0-.355469.355469-.355469.929688 0 1.285156l6.429687 6.433594c.355469.355469.933594.355469 1.289063 0 .351562-.355469.351562-.933594 0-1.289062zm0 0"/><path d="m12.734375 5.628906c0-1.003906-.816406-1.820312-1.820313-1.820312-1.003906 0-1.816406.816406-1.816406 1.820312s.8125 1.820313 1.816406 1.820313c1.003907 0 1.820313-.816407 1.820313-1.820313zm0 0"/></g></svg>

<?xml version="1.0" encoding="UTF-8"?>
<svg xmlns="http://www.w3.org/2000/svg" xmlns:xlink="http://www.w3.org/1999/xlink" width="22px" height="22px" viewBox="0 0 22 22" version="1.1">
<g id="surface1">
<path style=" stroke:none;fill-rule:nonzero;fill:rgb(25.882354%,25.882354%,25.882354%);fill-opacity:1;" d="M 11.824219 17.453125 L 11.824219 9.269531 C 11.824219 8.765625 11.417969 8.359375 10.914062 8.359375 C 10.414062 8.359375 10.003906 8.765625 10.003906 9.269531 L 10.003906 17.453125 C 10.003906 17.957031 10.414062 18.363281 10.914062 18.363281 C 11.417969 18.363281 11.824219 17.957031 11.824219 17.453125 Z M 11.824219 17.453125 "/>
<path style=" stroke:none;fill-rule:nonzero;fill:rgb(25.882354%,25.882354%,25.882354%);fill-opacity:1;" d="M 5.125 16.34375 L 11.558594 9.910156 C 11.914062 9.554688 11.914062 8.980469 11.558594 8.625 C 11.203125 8.269531 10.625 8.269531 10.269531 8.625 L 3.839844 15.054688 C 3.484375 15.410156 3.484375 15.988281 3.839844 16.34375 C 4.195312 16.699219 4.769531 16.699219 5.125 16.34375 Z M 5.125 16.34375 "/>
<path style=" stroke:none;fill-rule:nonzero;fill:rgb(25.882354%,25.882354%,25.882354%);fill-opacity:1;" d="M 17.992188 15.054688 L 11.558594 8.625 C 11.203125 8.269531 10.628906 8.269531 10.273438 8.625 C 9.917969 8.980469 9.917969 9.554688 10.273438 9.910156 L 16.703125 16.34375 C 17.058594 16.699219 17.636719 16.699219 17.992188 16.34375 C 18.34375 15.988281 18.34375 15.410156 17.992188 15.054688 Z M 17.992188 15.054688 "/>
<path style=" stroke:none;fill-rule:nonzero;fill:rgb(25.882354%,25.882354%,25.882354%);fill-opacity:1;" d="M 12.734375 5.628906 C 12.734375 4.625 11.917969 3.808594 10.914062 3.808594 C 9.910156 3.808594 9.097656 4.625 9.097656 5.628906 C 9.097656 6.632812 9.910156 7.449219 10.914062 7.449219 C 11.917969 7.449219 12.734375 6.632812 12.734375 5.628906 Z M 12.734375 5.628906 "/>
</g>
</svg>
